X: 26370
T: Merry Blacksmith, The
R: reel
M: 4/4
K: Dmajor
d2 dA BAFG|ABdA BAFA|ABde f2 ed|B/c/d e^d egfe|
d/e/d dA BAFG|ABdA BAFA|ABde fdec|dBAF D3:|
a2 ag f2 fe|d2 dA BAFG|ABde f2 ed|Beed e/f/g fg|
abag fgfe|dcdA BAFA|ABde f2 ec|dBAF D3:|

